!!!OTL: R&auml;tsel (207a), S. 453
!!!id: T0391
**kern
*clefG2
*k[b-]
*F:
{8f
=1
8f
4f
8c
8f
4a
8f
=2yy
8a
=3
4cc
8cc
8cc
4cc
8a}
=4
{8f
=5
8cc
8cc
8cc
8cc
4cc
8a
8cc
=6
4cc
8cc
8dd
4cc}
4r
=7
{8cc
8cc
8cc
8cc
4ff
8a
8a
=8
4a
4cc
4.ee}
=9
{8dd
=10
8cc
8cc
8cc
8dd
8cc
8g
8g
8b-
=11
4a
4g
4f}
4r
==
*-
!!!minrhy: 8
!!!meters: 4/4 ]  ZZ[4
!!!cut1: R&auml;tsel (207a), S. 453
!!!cut2: Melodie I
!!!reg: Luxemburg
!!!trd: Singendes Volk, Esch-Alzette, 1937 posth.
!!!rhy1:   X_XXX_XX  X_XXX_X
!!!rhy2: X  XXXXX_XX  X_XXX_0_
!!!key: T0391  08  F 4/4 ]  ZZ[4
!!!mod: HEPTATONIK IONISCH]  AMBITUS[11
!!!kad: 3571
!!!akz: 1355_5555_5+137_5531_
!!!fot: 'a__b__c__d__
!!!for: 'a__b__c__d__
!!!fok: 'Sa_/__~a_\__
!! PHRAS[GEMISCHTTAKTIG]
!!!fkt: R&auml;tsel-, Wunsch-, Wettlied
!!!bem: Junglinster, hhh Johann W&uuml;rth, 25.12.1932
!! THILL; Mathias
!! PR[57] 2K[0] 2G[11] 3K[2] 3G[0] 4A[0] 4Ü[0] 5A[2] 6K[0] 6G[2]
!! 7K[0] 7G[0] 8A[0] MEHR[0] SI[18] ABS[44] SR[11] SP[7]
!! ST[16] 2k[5] 2g[11] 3k[0] 3g[7] 4d[2] 4ü[0] 5d[0] 6k[0] 6g[0]
!! 7k[0] 7g[0] 8d[0] mehr[0] si[25] dm[-7] sr[16] sp[9]
!! 1F[64] 2F[36] 3F[0] 4F[0] LF[0] 2P[0] 3P[0] 4P[0] TRI[0] DF[2] AB[47]
!! TF[0] U3K[0] U3[0] U4[0] U4Ü[0] U5[2] U6K[0] U6[0] U7K[0] U7[0]
!! N1[27] N2K[0] N2[13] N3K[0] N3[31] N4[7] N4Ü[0] N5[20] N6K[0] N6[0]
!!!n7k: 0] N7[0] O1[0] O2K[0] O2[0] O3K[0] O3[0] HÖ[0
!!!RNB: symbol: &auml;      = a umlaut  (UTF-8: Å„)
!!!RNB: symbol: &uuml;  = u umlaut (UTF-8: Ã¼)
